icons/offers-r-arrow.svg

<svg width="54" height="151" viewBox="0 0 54 151" fill="none" xmlns="http://www.w3.org/2000/svg">
<path d="M40.7433 98.2332L37.248 96.2882L40.7433 98.2332ZM15.0962 150.14C12.9717 150.746 10.7586 149.514 10.1531 147.39L0.286881 112.768C-0.318562 110.644 0.912922 108.431 3.03748 107.825C5.16203 107.22 7.37513 108.451 7.98058 110.576L16.7506 141.35L47.5254 132.58C49.6499 131.975 51.863 133.206 52.4685 135.331C53.0739 137.456 51.8424 139.669 49.7179 140.274L15.0962 150.14ZM44.2386 100.178L17.4953 148.239L10.5047 144.349L37.248 96.2882L44.2386 100.178ZM15.945 0.893373C51.1748 20.497 63.8422 64.9484 44.2386 100.178L37.248 96.2882C54.7033 64.9192 43.424 25.3393 12.055 7.88397L15.945 0.893373Z" fill="url(#paint0_linear_436_417)"/>
<defs>
<linearGradient id="paint0_linear_436_417" x1="-19.6278" y1="118.998" x2="44.1469" y2="4.38867" gradientUnits="userSpaceOnUse">
<stop stop-color="#2E1ADE"/>
<stop offset="1" stop-color="white"/>
</linearGradient>
</defs>
</svg>

<svg xmlns="http://www.w3.org/2000/svg" width="54" height="151" fill="none"><path fill="url(#a)" d="m40.743 98.233-3.495-1.945zM15.096 150.14a4 4 0 0 1-4.943-2.75L.287 112.768a4 4 0 0 1 7.694-2.192l8.77 30.774 30.774-8.77a4 4 0 0 1 2.193 7.694zm29.143-49.962-26.744 48.061-6.99-3.89 26.743-48.06zM15.945.893c35.23 19.604 47.897 64.055 28.294 99.285l-6.991-3.89C54.703 64.92 43.424 25.34 12.055 7.884z"/><defs><linearGradient id="a" x1="-19.628" x2="44.147" y1="118.998" y2="4.389" gradientUnits="userSpaceOnUse"><stop stop-color="#2E1ADE"/><stop offset="1" stop-color="#fff"/></linearGradient></defs></svg>
